X: 1
T: Dominion Reel
N: RJ R-92
O: New England
M: C|
Z: Transcribed to abc by Mary Lou Knack
R: reel
K: C
G2 |\
"C"c2c2 "G"BcdB | "C"cega gece |\
"F"f2fd "C"e2ec | "G"dcBA G2AB ||\
"C"c2c2 "G"BcdB |
"C"cega gece |\
"F"f2fd "C"e2ec | "G"dcBd "C"c2 :: G2 | "C"cege cege | "F"defe "G"dcBd |
"C"cege cege | "G"dg"D"^fa "G"g2G2 ||\
"C"cege cege | "F"f2fe dcBA |\
"G"GABc defg | "C"ec"G"dB "C"c2 :|
%%text Alternate chords by Heather Pinney:\
	|: CG  C-  Dm-  G-  CG  AmEm  FD  GC :||: C-  G-  C-  DG  C-  F-  G-  -C :|


